X:050 
T:Fair Miss McGuÃÂÃÂÃÂÃÂ­nness (reel)
S:Donnelly < J.McMahon
F:file ID: cre.4/050fair_miss
B:CRE4.172 (Inion Mhic Aonghusa)
N:I added "Fair" to the title to avoid confusion with the other 
"Miss McGuÃÂÃÂÃÂÃÂ­ness"
L:1/8
Q:180
M:4/4
R:reel
K:Am
eaab a2ge|dega g2ed|eaab a2ge|dBGA BAA2|
eaab a2 ge|dega g2 ga|bga^f gfed|BGE^F GABG ||
A2 eA A2eA|A2 eA dBGB|A2 eA A2BG|E^FGA BABG|
A2 eA A2eA|A2 eA dBGB|A2 eA A2BG|E^FGA BA A2 ||

%%%

